X: 24451
T: Luck Penny, The
R: jig
M: 6/8
K: Gmajor
A|BAG AGF|DGG FGA|BAG B/c/dB|cAG FGA|
B2G AFD|GBd g3|fed gdB|cAF G2:|
|:B|dgg gfg|f/g/ag fga|bag agf|def g2a|
bgg agg|g3 fd^c|def gdB|cAF G2:|
B|dBG GFG|dBG GAB|cA=F =FE=F|cA=F =FAc|
dBG GBd|g3 fd^c|def gdB|cAF G2B|
dBG GFG|G,B,D GAB|cA=F =FE=F|A,C=F ABc|
dBG GBd|g3 fd^c|def gdB|cAF G2||

